X: 305736
T: COTILLION No. 17. LADY GAY SPANKER'S SETT tune 4
C:
%R: reel, march
B: Elias Howe "The Musician's Companion" Part 3 1844 p.117 #1
S: http://imslp.org/wiki/The_Musician's_Companion_(Howe,_Elias)
Z: 2015 John Chambers <jc:trillian.mit.edu>
M: 2/4
L: 1/16
K: C
% - - - - - - - - - - - - - - - - - - - - - - - - - - - - -
G2 |\
c2c2 cBcB | c>Bc>B c>de>f | g2g2 a>gf>e | f2d2d2 G2 |\
c2c2 c>Bc>B | c>Bc>B c>de>f | geaf e2d2 | c2c2c2 H|]
e>f |\
g4 f2e2 | d2c2 B2g2 | a4 E3F | G2F2 E2f2 |\
g4 f2e2 | d2c2 B2g2 | a4 ^f4 | g4 "^D.C."g2 |]
E2 |\
(^GA)E2 (GA)E2 | c4 B2A2 | e2e2 c2B2 | A2E2 E2E2 |\
(^GA)E2 (GA)E2 | c4 B2A2 | e2E2 ^F2^G2 | A2A2"^D.C."A2 |]
% - - - - - - - - - - Dance description - - - - - - - - - -
%%begintext align
%% First 2 forward and back,
%% cross over,
%% chassa de chassa,
%% cross back,
%% ladies chain,
%% promenade 4.
%% Next 2 forward, &c.
%%endtext
% - - - - - - - - - - - - - - - - - - - - - - - - - - - - -
%%sep 1 1 300


